icons-rebrand/svg/active-speaker-bold.svg

<svg width="32" height="32" viewBox="0 0 32 32" fill="none" xmlns="http://www.w3.org/2000/svg">
<path d="M12.3901 12.8701C12.0019 11.9158 11.4343 11.0448 10.7181 10.3041C10.5333 10.1154 10.2812 10.0076 10.0171 10.0041C9.75298 10.0006 9.49819 10.1018 9.30839 10.2855C9.11859 10.4692 9.0092 10.7206 9.00409 10.9847C8.99899 11.2488 9.09859 11.5042 9.28115 11.6951C9.81937 12.2524 10.246 12.9075 10.5381 13.6251C11.1543 15.1485 11.1543 16.8517 10.5381 18.3751C10.2462 19.0928 9.81956 19.748 9.28115 20.3051C9.10515 20.4972 9.01107 20.7504 9.01892 21.0108C9.02678 21.2712 9.13595 21.5183 9.32321 21.6994C9.51047 21.8806 9.76103 21.9815 10.0216 21.9807C10.2821 21.9799 10.532 21.8774 10.7181 21.6951C11.4337 20.955 12.001 20.0846 12.3891 19.1311C13.203 17.1235 13.203 14.8778 12.3891 12.8701H12.3901ZM21.5791 9.00312C20.6701 6.86608 19.3544 4.92611 17.7051 3.29112C17.516 3.10942 17.2631 3.00928 17.0009 3.01227C16.7387 3.01526 16.4881 3.12114 16.3032 3.3071C16.1183 3.49306 16.0138 3.74422 16.0123 4.00646C16.0108 4.2687 16.1124 4.52104 16.2951 4.70912C17.7611 6.16247 18.9307 7.88673 19.7391 9.78612C20.5713 11.7523 21 13.8656 21 16.0006C21 18.1356 20.5713 20.2489 19.7391 22.2151C18.9307 24.1144 17.7606 25.8384 16.2941 27.2911C16.1114 27.4792 16.0098 27.7315 16.0113 27.9938C16.0128 28.256 16.1173 28.5072 16.3022 28.6931C16.4871 28.8791 16.7377 28.985 16.9999 28.988C17.2621 28.991 17.515 28.8908 17.7041 28.7091C19.354 27.0748 20.6702 25.1351 21.5791 22.9981C22.5168 20.7844 23 18.4048 23 16.0006C23 13.5965 22.5168 11.2169 21.5791 9.00312Z" fill="#0F0F0F"/>
<path d="M18.0001 15.9999C18.0038 14.1776 17.6611 12.3712 16.9901 10.6769C16.5295 9.51511 15.9147 8.42061 15.1621 7.42291C14.8711 7.03691 14.5591 6.66691 14.2281 6.31491C14.1384 6.21804 14.0305 6.13988 13.9105 6.08493C13.7905 6.02998 13.6608 5.99933 13.5289 5.99474C13.397 5.99016 13.2654 6.01174 13.1419 6.05823C13.0184 6.10472 12.9053 6.1752 12.8091 6.26562C12.713 6.35603 12.6357 6.46459 12.5817 6.58503C12.5277 6.70546 12.498 6.8354 12.4945 6.96734C12.491 7.09928 12.5136 7.23062 12.561 7.35377C12.6085 7.47693 12.6799 7.58947 12.7711 7.68491C13.0521 7.98491 13.3181 8.29891 13.5661 8.62791C14.2107 9.48231 14.7371 10.4198 15.1311 11.4149C16.2888 14.362 16.2888 17.6379 15.1311 20.5849C14.7388 21.5751 14.2158 22.5084 13.5761 23.3599C13.3261 23.6919 13.0571 24.0099 12.7721 24.3129C12.59 24.5059 12.492 24.7632 12.4997 25.0284C12.5074 25.2936 12.6201 25.5448 12.8131 25.7269C13.006 25.909 13.2634 26.007 13.5286 25.9993C13.7937 25.9916 14.045 25.8789 14.2271 25.6859C14.5631 25.3299 14.8791 24.9549 15.1731 24.5629C15.9208 23.5688 16.5322 22.4791 16.9911 21.3229C17.6601 19.6279 18.0041 17.8219 18.0001 15.9999Z" fill="#0F0F0F"/>
</svg>

<svg width="32" height="32" viewBox="0 0 32 32" fill="none" xmlns="http://www.w3.org/2000/svg"><path d="M12.39 12.87a8.063 8.063 0 0 0-1.672-2.566 1 1 0 0 0-1.437 1.391 6.076 6.076 0 0 1 1.257 1.93 6.334 6.334 0 0 1 0 4.75 6.066 6.066 0 0 1-1.257 1.93 1 1 0 0 0 1.437 1.39 8.062 8.062 0 0 0 1.671-2.564 8.333 8.333 0 0 0 0-6.261zM21.579 9.003a17.92 17.92 0 0 0-3.874-5.712 1 1 0 0 0-1.41 1.418 15.939 15.939 0 0 1 3.444 5.077 15.945 15.945 0 0 1 0 12.429 15.923 15.923 0 0 1-3.445 5.076 1 1 0 0 0 1.41 1.418 17.9 17.9 0 0 0 3.875-5.711 17.941 17.941 0 0 0 0-13.995z" fill="#0F0F0F"/><path d="M18 16a14.375 14.375 0 0 0-1.01-5.323 13.922 13.922 0 0 0-1.828-3.254c-.291-.386-.603-.756-.934-1.108a1 1 0 1 0-1.457 1.37c.281.3.547.614.795.943a11.9 11.9 0 0 1 1.565 2.787 12.54 12.54 0 0 1 0 9.17 11.94 11.94 0 0 1-1.555 2.775c-.25.332-.519.65-.804.953a1 1 0 0 0 1.455 1.373c.336-.356.652-.731.946-1.123a13.956 13.956 0 0 0 1.818-3.24C17.66 19.628 18.004 17.822 18 16z" fill="#0F0F0F"/></svg>
